X: 460
T: Chadwell Station
B: jims roots
M:2/4
L:1/4
Q: 1/4=100
K:G
V:1 
|: "G"G/A/B/A/ "C"E2 | E/D/ B,"D"D E  | "G"G2 G/A/B/A/  | "C"E D "D"E/G/G/A/ | "G" G2 z2 |
d2 B G | "D"A/G/A/B/ c/A/ G | "G"B/d/d/e/ d2 | "D"e/d/e/f/ "G" g g | d/e/g/e/ d B |
"C"A/G/A/B/ c/A/ G  | "D"B/d/d/e/ d2 | e/d/e/f/ "G"g g | [g/B/][e/A/][g/B/][e/A/] B B |
"C"A/G/A/G/ E2 | E/D/ B, "D"D E | "G"G2 G/A/B/G/ | "C"E D E/G/G/A/ | "G"G2 z2:|
% abcbook-tune_id 6298c245c3c37f6e08231a75


% abcbook-boost 0
% abcbook-tablature 
% abcbook-transpose 
% abcbook-lastupdated 1654178373659
% abcbook-soundfonts 
% abcbook-repeats 1


